T: Tenpenny Bit, The
M: 6/8
L: 1/8
K: Gmaj
|:C G |G / |C G|G Em |D C|G / |Em / |D / :||:Am / |Bm / |C / |D / |Em D |C / |G / |D / :||:C G |G / |C G|G Am |Bm C|Em / |C / |D / :||:Em / |D / |C / |D / |Am / |Em Bm |C / |D / :|
